X:636
T: WER NUR DEN LIEBEN GOTT LAESST WALTEN
N: E2002
O: Europa, Mitteleuropa, Deutschland
R: geistlich, Trost -, Lob - Lied, Choral
M: 4/4
L: 1/4
K: A
E | AB=cB | ABG2 | E
=GG=F | EAAG | A2z
E | AB=cB | ABG2 | E
=GG=F | EAAG | A2z
B | =cdee | dd=c
e | d=cBA | =cBA

@@@ Tune index: 5320
